!!!!SEGMENT: pl-wtm--r-2008--001_smietanski-emil-wladyslaw--trois-mazourkas-op-2.krn
!!!cenid: 18xx:1986
!!!COM: Śmietański, Emil Władysław
!!!COM-rismid: pe50041781
!!!CDT: 1845-1886
!!!CNT: Polish
!!!GTL: Trois Mazourkas op. 2
!!!OTL: [Nr 1]
!!!PDT: 1865
!!!AGN: Secular; Mazurka
!!!SMS-siglum: PL-Wtm
!!!SMS-shelfmark: R 2008
!!!SMS-shelfwork: 001 G
!!!SMS-variant:
!!!SMS-altvar:
!!!NIFC-rismid: 1001112202
!!!URL-scan: http://repozytorium.nifc.pl/skany/pl-wtm-nut--r2008
!!!ONB-nifc:
!!!AIN: 1 forte
!!!key:
**kern	**kern	**dynam
*part1	*part1	*part1
*staff2	*staff1	*
*Iforte	*Iforte	*
*I"Fortepian	*I"Fortepian	*
*I'pf	*I'pf	*
*clefF4	*clefG2	*
*k[]	*k[]	*
*C:	*C:	*
*M3/4	*M3/4	*
*>[A,A1,A,A2,B]	*>[A,A1,A,A2,B]	*
=1	=1	=1
*>A	*>A	*>A
!	!LO:TX:a:t=No. 1.	!
4c 4C\	4ee 4g\	p
4A 4C\	8ee-XL 8g\	.
.	8f#X\	.
4B 4C\	8ddn 8f#\	.
.	8fn\J	.
=2	=2	=2
4c 4C\	8.ccL 8.e\	.
.	16dd#XJk 16f#X\	.
4c 4C\	4ee 4g\	.
4G 4C\	4ee 4cc\	.
=3	=3	=3
4c 4C\	4gg 4ee\	.
*clefG2	*	*
!	!LO:TX:b:t=es	!
4a 4c\	8ggL 8ee-X\	.
.	8ff#X\	.
4b 4c\	8ff# 8ddn\	.
.	8ffn\J	.
=4	=4	=4
4cc 4c\	8.eeL 8.cc\	.
.	16ccc\Jk	.
4a 4c\	4.ee 4.cc\	.
4a-X 4c\	.	.
.	8ff#X 8cc\	.
*clefF4	*	*
=5	=5	=5
.	32qqaa/	>
4g 4G\	4gg 4b\	.
4g 4G\	8ddL 8b\	.
.	8b-X\	.
4c#X 4G\	8ee 8b-\	.
.	8a\J	]
=6	=6	=6
.	32qqgg/	>
4d 4G\	4ff 4a\	.
4f 4G\	8ccL 8a\	.
.	8a-X\	.
4Bn 4G\	8dd 8a-\	.
.	8g\J	]
=7	=7	=7
4c 4C^^\	8.eeL 8.g\	.
.	16ff#XJk 16ee 16a\	.
!	!LO:TX:b:t=rit...:dur=5q:ext=ut:problem=tekst with extention lines	!
4B 4BB^^\	4.gg 4.ee 4.b\	.
4BB 4BBB/	.	.
.	8ff# 8dd#X 8a\	.
=8	=8	=8
4E 4EE^^/	8.ff#XL 8.dd#X 8.a\	.
.	16ggJk 16ee 16b\	.
2B 2E^^\	2ee 2g\	.
!!LO:LB:g=original
=9	=9	=9
!LO:TX:a:i:t=marcato.	!	!
4c 4E\	2r	.
[4B 4E\	.	.
4B] [4BB\	4r	.
=10	=10	=10
8.EL 8.BB/]	2r	.
16BBJk [16EE/	.	.
4E 4EE/]	.	.
4r	4r	.
=11	=11	=11
4C 4CC/	4ee 4g\	f
4A 4C\	8ee-XL 8g\	.
.	8f#X\	.
4B 4C\	8ddn 8f#\	.
.	8fn\J	.
=12	=12	=12
4c 4C\	8.ccL 8.e\	.
.	16dd#XJk 16f#X\	.
4c 4C\	4ee 4g\	.
4G 4C\	4ee 4cc\	.
=13	=13	=13
4C 4CC/	4gg 4ee\	.
4A 4C\	8ggL 8ee-X\	.
.	8ff#X\J	.
4B 4C\	8ff#L 8ddn\	.
.	8ffn\J	.
=14	=14	=14
4c 4C\	8.eeL 8.cc\	.
.	16ccc\Jk	.
4A 4C\	4.ee 4.cc\	.
4A 4D\	.	.
.	8ff#X 8cc\	.
=15	=15	=15
4GGG/	8.ggL 8.b\	f
.	16ccc\Jk	.
4G 4GG\	4.ee 4.cc\	.
4D 4GG\	.	.
.	8ff#X 8cc\	.
=16	=16	=16
4GGG/	8.ggL 8.b\	.
.	16ccc\Jk	.
4G 4GG\	4.ee 4.cc\	.
4D 4GG\	.	.
.	8ff#X 8cc\	.
!!LO:LB:g=original
=17	=17	=17
!LO:TX:a:i:t=marcato	!	!
4E 4GG/	2gg 2b\	.
[4D 4GG/	.	.
4D] [4DD/	4r	.
=18	=18	=18
8.GGL 8.DD/]	4r	.
16DDJk [16GGG/	.	.
4GG 4GGG/]	4r	.
4r	4g/	.
.	.	p
=19	=19	=19
8.DL 8.GG\	8.gL 8.B\	.
16E-X\Jk	16c\Jk	.
8EnL 8GG\	8gL 8c#X\	.
8F\	8d\	.
8G 8GG\	8g 8e\	.
8F\J	8d\J	.
=20	=20	=20
4F [4C\	8.gL 8.cM</	.
.	16B/Jk	.
!	!LO:TX:b:i:t=cres-cen-do:ext2=cd:problem=dynamics with extention lines	!LO:HP:t=cres-cen-do
(<4E 4C^^\]	(<4c^^</	<
8EE/)	8cc\)	.
8r	8r	.
=21	=21	=21
8.BBL 8.EE/	8.eL 8.G#X/	.
16C/Jk	16A/Jk	.
8C#XL 8EE/	8eL 8A#X/	.
8D/	8B/	.
8E 8EE/	8e 8c/	.
8D/J	8B/J	.
=22	=22	=22
4D [4AA/	8.eL 8.AM</	.
.	16G#X/Jk	[
(>4C 4AA^^/]	(4A^^</	.
8GGG/)	8a/)	.
8r	8r	.
=23	=23	=23
4FF#X 4FFF#X/	8.ccL 8.e\	ff
.	16ccJk 16e\	.
2A 2F#X\	2e 2c\	.
=24	=24	=24
4FF#X 4FFF#X/	8.ccL 8.e\	.
.	16ccJk 16e\	.
2A 2F#X\	2e 2c\	.
!!LO:LB:g=original
=25	=25	=25
4GGG/	8.aL 8.e'/	.
.	16dJk 16B/	.
4F\	8dL 8B/	.
.	8c#XJ 8A#X/	.
4GG\	8dL 8B/	.
.	8d#XJ 8B/	.
=26	=26	=26
4CC/	8.d#XL 8.B/	.
.	16aJk 16d#/	.
4E\	8gL 8e 8c/	.
.	8f#XJ 8d#/	.
4GG\	8gL 8e/	.
.	8b/J	.
=27	=27	=27
4FF#X 4FFF#X/	8.ccL 8.e\	ff
.	16ccJk 16e\	.
2A 2F#X\	2e 2c\	.
=28	=28	=28
4FF#X 4FFF#X/	8.ccL 8.e\	.
.	16ccJk 16e\	.
2A 2F#X\	2e 2c\	.
=29	=29	=29
4GGG/	8.aL 8.e\	.
.	16dJk 16B\	.
4F\	8dL 8B/	.
.	8c#X 8A#X/	.
4GG/	8d 8B/	.
.	8e/J	.
=30	=30	=30
!LO:TX:a:t=I	!	!
*>A1	*>A1	*>A1
4CC/	8.cL 8.E/	.
.	16eJk 16c/	.
4G 4C\	4cc 4e/	.
4r	4r	.
=31:|!	=31:|!	=31:|!
!LO:TX:a:t=II	!	!
*>A2	*>A2	*>A2
4CC/	8.cL 8.E/	.
.	16eJk 16c/	.
4G 4C\	4.cc 4.e\	.
4r	.	.
.	8ee 8cc\	.
!!LO:LB:g=original
=32	=32	=32
*>B	*>B	*>B
8.EE\L	4ee 4cc\	p
16E\Jk	.	.
8.fL 8.F\	4.dd 4.b\	.
16EE\Jk	.	.
4F 4FF\	.	.
.	8dd 8b\	.
=33	=33	=33
8.EE\L	4dd 4b\	.
16D#X\Jk	.	.
8.eL 8.E\	4.cc 4.a\	.
16DD#X\Jk	.	.
4E 4EE\	.	.
.	8cc 8a\	.
=34	=34	=34
!LO:N:vis=8	!	!
8.EE\L	8ccL 8a\	.
.	8bJ 8g#X\	.
16D\Jk	.	.
8.d#XL 8.D#X\	8ddL 8b\	.
.	8ccJ 8a\	.
16DD\Jk	.	.
4D# 4DD#X\	8bL 8g#\	.
.	8aJ 8f#X\	.
=35	=35	=35
8.EE\L	4g#X 4e\	.
16D#X\Jk	.	.
8.eL 8.E\	4.ee 4.cc\	.
16DD#X\Jk	.	.
4E 4EE\	.	.
.	8ee 8cc\	.
=36	=36	=36
8.EE\L	4ee 4cc\	<
16E\Jk	.	.
8.fL 8.F\	4.dd 4.b\	[
16EE\Jk	.	>
4F 4FF\	.	.
.	8ee 8cc\	]
=37	=37	=37
8.EE\L	4dd 4b\	<
16D#X\Jk	.	.
8.eL 8.E\	4.cc 4.a\	[
16DD#X\Jk	.	>
4E 4EE\	.	.
.	8dd 8b\	]
=38	=38	=38
8.EE\L	8.ccL 8.a\	.
16D\Jk	16bJk 16g#X\	.
8.d#XL 8.D#X\	8ddL 8b\	>
.	8ccJ 8a\	.
16DDn\Jk	.	.
4D# 4DD#X\	8bL 8g#\	.
.	8aJ 8f#X\	]
=39	=39	=39
8.EE\L	4g#X 4e\	<
16D#X\Jk	.	.
8.eL 8.E\	4.cc 4.a\	[
16DD#X\Jk	.	>
4E 4EE\	.	.
.	8a 8d#X\	]
!!LO:LB:g=original
=40	=40	=40
!LO:N:vis=8	!	!
8.EE\L	4g#X 4e\	<
16E\Jk	.	.
8.fL 8.F\	4.a 4.d#X\	[
16EE\Jk	.	>
4F 4FF\	.	.
.	8d# 8A/	]
=41	=41	=41
8.EE/L	4e 4G#X/	.
16BB/Jk	.	.
8.cL 8.C/	4e 4A/	.
16BBB/Jk	.	.
4C 4CC/	4e 4A#X/	.
=42	=42	=42
8.BBB/L	4d#X 4B/	f
16AA#X/Jk	.	.
8.BL 8.BB/	4.b 4.g\	.
16AAA#X/Jk	.	.
4BB 4BBB/	.	.
.	8b 8g\	.
=43	=43	=43
8.BBB/L	4b 4g\	.
16BB/Jk	.	.
8.cL 8.C/	4.a 4.f#X\	.
16BBB/Jk	.	.
4C 4CC/	.	.
.	8a 8f#\	.
=44	=44	=44
!LO:N:vis=8	!	!
8.BBB/L	4a 4f#X/	.
16AA#X/Jk	.	.
!LO:N:vis=8	!	!
8.BL 8.BB/	4.g 4.e/	.
16AAA#X/Jk	.	.
4BB 4BBB/	.	.
.	8g 8e/	.
=45	=45	=45
8.BBB/L	8gL 8e/	.
.	8f#XJ 8d#X/	.
16AA/Jk	.	.
8.A#XL 8.AA#X/	8aL 8f#/	.
.	8gJ 8e/	.
16AAAn/Jk	.	.
4AA# 4AAA#X/	8f#L 8d#/	.
.	8eJ 8c#X/	.
=46	=46	=46
8.BBB/L	4d#X 4B/	.
16AA#X/Jk	.	.
8.BL 8.BB\	4.b 4.g\	.
16A#X\Jk	.	.
4b 4B\	.	.
.	8bb 8gg\	.
=47	=47	=47
8.BB\L	4bb 4gg\	pp
16B\Jk	.	.
8.ccL 8.c\	4.aa 4.ff#X\	.
16BB\Jk	.	.
4c 4C\	.	.
.	8bb 8gg\	.
!!LO:PB:g=original
=48	=48	=48
8.BB\L	4aa 4ff#X\	.
16A#X\Jk	.	.
!LO:N:vis=8	!	!
8.bL 8.B\	4.gg 4.ee\	.
16AA#X\Jk	.	.
4B 4BB\	.	.
.	8aa 8ff#\	.
=49	=49	=49
!LO:N:vis=8	!	!
8.BB\L	8ggL 8ee\	.
.	8ff#XJ 8dd#X\	.
16A\Jk	.	.
!LO:N:vis=8	!	!
8.a#XL 8.A#X\	8aaL 8ff#\	.
.	8ggJ 8ee\	.
16AA\Jk	.	.
4A# 4AA#X\	8ff#L 8dd#\	.
.	8eeJ 8cc#X\	.
=50	=50	=50
!LO:N:vis=8	!	!
8.BB\L	4dd#X 4b\	.
16A#X\Jk	.	.
!LO:N:vis=8	!	!
8.bL 8.B\	4.gg 4.ee\	.
16AA#X\Jk	.	.
4B 4BB\	.	.
.	8ee 8a#X\	.
=51	=51	=51
!LO:N:vis=8	!	!
8.BB\L	4dd#X 4b\	.
16B\Jk	.	.
!LO:N:vis=8	!	!
8.ccL 8.c\	4.ee 4.a#X\	.
16BB\Jk	.	.
4c 4C\	.	.
!	!LO:TX:b:t=rit-e-nu-to.:dur=6q:ext2=cd:problem=text with extention lines	!
.	8a# 8e/	.
=52	=52	=52
!LO:N:vis=8	!	!
8.BB\L	4b 4d#X/	.
16A#X\Jk	.	.
!LO:N:vis=8	!	!
8.bL 8.B\	4.gg 4.ee\	.
16AA#X\Jk	.	.
4B 4BB\	.	.
.	8ee 8a#X\	.
=53	=53	=53
!LO:N:vis=8	!	!
8.BB\L	4dd#X 4b\	.
16B\Jk	.	.
!LO:N:vis=8	!	!
8.ccL 8.c\	4.ee 4.a#X\	.
16C\Jk	.	.
4c#X 4C#X\	.	.
.	8a# 8e\	.
=54	=54	=54
4DD/	4b 4d\	p
4B 4D\	4.b 4.g\	.
4B 4D\	.	.
.	8b 8g\	.
=55	=55	=55
4DD/	8.ccL 8.g\	<
.	16cc#X\Jk	.
4c 4D\	4ee 4g\	[
.	.	>
4c 4D\	4dd 4f#X\	]]
!!LO:LB:g=original
=56	=56	=56
4EE/	4g 4B/	.
4G 4BB/	4.g 4.e/	.
4G 4BB/	.	.
.	8g 8e/	.
=57	=57	=57
4BBB/	8.aL 8.e/	<
.	16a#X/Jk	.
4A 4BB/	4cc 4e/	[
.	.	>
4A 4BB/	4b 4d#X/	]]
=58	=58	=58
4CC/	8.bL 8.e-X/	.
.	16a/Jk	.
4e-X: 4A: 4G: 4C:\	4.ee-X\	.
4r	.	.
.	8e-/	.
=59	=59	=59
4DD/	8d/L	<
.	8g/	.
4B 4G\	8b/	.
.	8dd/	.
4D\	16gg/Jk	.
.	16r	[
.	8ff#X/	.
=60	=60	=60
4DD/	4.ee 4.cc\	.
4c\	.	.
.	8a 8f#X\	.
4D\	8eeL 8cc\	.
.	8a#XJ 8f#\	.
=61	=61	=61
4GG\	8.ee\L	.
.	16bJk 16g\	.
4B 4D\	4ee\	.
4c 4D\	4dd 4f#X\	.
=62	=62	=62
!	!	!LO:DY:t=più forte
4GG 4GGG/	4b 4d\	f
4B 4D\	4.b 4.g\	.
4B 4D\	.	.
.	8b 8g\	.
=63	=63	=63
4DD 4DDD/	8.ccL 8.g\	.
.	16cc#X\Jk	.
4c 4D\	4ee 4g\	.
4c 4D\	4dd 4f#X\	.
!!LO:LB:g=original
=64	=64	=64
4EE 4EEE/	4g 4B/	.
4G 4BB\	4.g 4.e/	.
4G 4BB\	.	.
.	8g 8e/	.
=65	=65	=65
4BBB/	8.aL 8.e/	.
.	16a#X/Jk	.
4A 4BB\	4cc 4e/	.
4A 4BB\	4b 4d#X/	.
=66	=66	=66
4CC/	8.bL 8.e-X\	.
.	16a\Jk	.
4e-X: 4A: 4G: 4C:\	4.ee-X\	.
4r	.	.
.	8e-/	.
=67	=67	=67
4DD/	8d/L	<
.	8g/	.
4B 4G\	8b/	.
.	8dd/	.
4D\	16gg/Jk	.
.	16r	[
.	8ff/	.
=68	=68	=68
4DD/	4.ee 4.cc\	.
4c\	.	.
.	8a 8f#X\	.
4D\	8eeL 8cc\	.
.	8a#XJ 8f#\	.
=69	=69	=69
4GG/	8.ee\L	.
.	16bJk 16g\	.
4B\	4ee\	.
4D\	4dd 4g\	.
=70	=70	=70
4EE/	8.ddL 8.g\	<
.	16cc#X\Jk	.
4g 4c#X 4B 4E\	4.gg\	.
4r	.	.
.	8g\	.
=71	=71	=71
4FF#X/	8f#X\L	<
.	8b\	.
4f#X 4d 4B\	8dd\	.
.	8ff#X\	.
4F#X\	16bb\Jk	.
.	16r	.
.	8aa\	[
!!LO:LB:g=original
=72	=72	=72
4FF#X\	4.gg 4.ee\	.
4e\	.	.
.	8cc 8a\	.
4F#X\	8ggL 8ee\	.
.	8cc#XJ 8a#X\	.
=73	=73	=73
4BB\	8.gg\L	.
.	16ddJk 16b\	.
4d\	4gg\	.
4F#X\	4ff#X 4b\	.
=74	=74	=74
!	!	!LO:HP:t=molto cresc.
4GG\	8.ff#XL 8.b-X\	<
.	16ee\Jk	.
4b-X 4e 4d 4G\	4.bb-X\	.
4r	.	.
.	8b-\	.
=75	=75	=75
4FF#X/	8a\L	.
.	8dd\	.
4a 4f#X 4d\	8ff#X\	.
.	8aa\J	.
4F#X\	4ddd\	<
=76	=76	=76
4GG\	8.ff#XL 8.b-X\	.
.	16ee\Jk	.
4b-X 4e 4d 4G\	4.bb-X\	.
4r	.	.
.	8b-\	.
=77	=77	=77
4FF#X/	8a\L	.
.	8dd\	.
4a 4f#X 4d\	8ff#X\	.
.	8aa\J	.
4F#X\	4ddd\	[[
=78	=78	=78
4GG\	8.ff#XL 8.b-X\	>
.	16ee\Jk	.
4e 4d 4G\	4.bb-X\	.
4e 4c#X 4G\	.	.
.	8b-\	.
=79	=79	=79
4FF#X/	8.eeL 8.a\	.
.	16dd#X\Jk	.
4d#X 4c#X 4F#X\	4.aa\	.
4d# 4cn 4F#\	.	.
.	8a\	]]
=80	=80	=80
!	!LO:N:vis=8	!
4FFn/	8.ee-XL 8.a-X\	p
.	16dd\Jk	.
4dn 4c 4Fn\	4aa-X\	.
!	!LO:N:vis=8	!
4FF/	8.ee-L 8.a-\	.
.	16dd\Jk	.
!!LO:LB:g=original
=81	=81	=81
4FF#X/	8.eenL 8.an\	.
.	16dd\Jk	<
4d 4c 4F#X\	8aaL 8ddM</	.
.	8cc#X/J	.
4B 4Fn 4GG\	8ggL 8dd 8b\	.
.	8dd#X\J	.
=82	=82	=82
4c 4E 4C\	4ee 4g\	[
4A 4C\	8ee-XL 8g\	p
.	8f#X\J	.
4B 4C\	8ddL 8f#\	.
.	8fn\J	.
=83	=83	=83
4c 4C\	8.ccL 8.e\	.
.	16dd#XJk 16f#X\	.
4G 4C\	4ee 4g\	.
4G 4C\	4ee 4cc\	.
=84	=84	=84
4c 4C\	4gg 4ee\	.
*clefG2	*	*
4a 4c/	8ggL 8ee-X\	.
.	8ff#X\	.
4b 4c/	8ff# 8dd\	.
.	8ffn\J	.
=85	=85	=85
4cc 4c/	8.eeL 8.cc\	.
.	16ccc\Jk	.
4a 4c/	4.ee 4.cc\	.
4a-X 4c/	.	.
.	8ff#X 8cc\	.
=86	=86	=86
.	32qqaa/	>
4g 4G/	4gg 4b\	.
*clefF4	*	*
4g 4G\	8ddL 8b\	.
.	8b-X\	.
4c#X 4G\	8ee 8b-\	.
.	8a\J	]
=87	=87	=87
.	32qqgg/	>
4d 4G\	4ff 4a\	.
4f 4G\	8ccL 8a\	.
.	8a-X\	.
4Bn 4G\	8dd 8a-\	.
.	8g\J	]]
=88	=88	=88
4c 4C^^\	8.eeL 8.g\	.
.	16ff#XJk 16dd 16a\	.
4B 4BB^^\	4.gg 4.ee 4.b\	.
4BB 4BBB/	.	.
.	8ff# 8dd#X 8a\	.
!!LO:LB:g=original
=89	=89	=89
!LO:TX:a:t=↓	!	!
4E 4EE/	8.ff#XL 8.dd#X 8.a\	.
.	16ggJk 16ee 16b\	.
!LO:TX:a:t=↓	!	!
2B 2E\	2ee 2g\	.
=90	=90	=90
!LO:TX:a:i:t=marcato	!	!
4c 4E\	2r	.
[4B 4E\	.	.
4B] [4BB\	4r	.
=91	=91	=91
8.EL 8.BB/]	2r	.
16BBJk [16EE/	.	.
4E 4EE/]	.	.
4r	4r	.
=92	=92	=92
4C 4CC/	4ee 4g\	f
4A 4C\	8ee-XL 8g\	.
.	8f#X\	.
4B 4C\	8dd 8f#\	.
.	8fn\J	.
=93	=93	=93
4c 4C\	8.ccL 8.e\	.
.	16dd#XJk 16f#X\	.
4G 4C\	4ee 4g\	.
4G 4C\	4ee 4cc\	.
=94	=94	=94
4C 4CC/	4gg 4ee\	.
4A 4C\	8ggL 8ee-X\	.
.	8ff#X\	.
4B 4C\	8ff# 8ddn\	.
.	8ffn\J	.
=95	=95	=95
4c 4C\	8.eeL 8.cc\	.
.	16ccc\Jk	.
4A 4C\	4.ee 4.cc\	.
4A 4D\	.	.
.	8ff#X 8cc\	.
=96	=96	=96
4GGG/	8.ggL 8.b\	f
.	16ccc\Jk	.
4A 4GG\	4.ee 4.cc\	.
4D 4GG\	.	.
.	8ff#X 8cc\	.
!!LO:PB:g=original
=97	=97	=97
4GGG/	8.ggL 8.b\	.
.	16ccc\Jk	.
4G 4GG\	4.ee 4.cc\	.
4D 4GG\	.	.
.	8ff#X 8cc\	.
=98	=98	=98
!LO:TX:a:i:t=marcato.	!	!
4E 4GG/	2gg 2b\	.
[4D 4GG/	.	.
4D] [4DD/	4r	.
=99	=99	=99
8.GGL 8.DD/]	2r	.
16DDJk [16GGG/	.	.
4GG 4GGG/]	.	.
4r	4g/	.
.	.	p
=100	=100	=100
8.DL 8.GG\	8.gL 8.B/	.
16E-X\Jk	16c/Jk	.
8EnL 8GG\	8gL 8c#X/	.
8F\J	8d/	.
8GL 8GG\	8g 8e/	.
8F\J	8d/J	.
=101	=101	=101
4F [4C\	8.gL 8.cM</	.
.	16B/Jk	<
(4E 4C^^\]	(4c^^</	.
8CC/)	8cc/)	.
8r	8r	.
=102	=102	=102
8.BBL 8.EE/	8.eL 8.G#X/	.
16C/Jk	16A/Jk	.
8C#XL 8EE/	8eL 8A#X/	.
8D/J	8B/	.
8EL 8EE/	8e 8c/	.
8D/J	8B/J	.
=103	=103	=103
4D [4AA/	8.eL 8.AM</	.
.	16G#X/Jk	.
(>4C 4AA^^/]	(4A^^</	.
8AAA/)	8a/)	.
8r	8r	[
=104	=104	=104
4FF#X 4FFF#X/	8.ccL 8.e\	ff
.	16ccJk 16e\	.
2A 2F#X\	2e 2c\	.
!!LO:LB:g=original
=105	=105	=105
4FF#X 4FFF#X/	8.ccL 8.e\	.
.	16ccJk 16e\	.
2A 2F#X\	2e 2c\	.
=106	=106	=106
4GGG/	8.aL 8.e/	.
.	16dJk 16B/	.
4F\	8dL 8B/	.
.	8c#XJ 8A#X/	.
4GG/	8dL 8B/	.
.	8d#X/J	.
=107	=107	=107
4CC/	8.d#XL 8.B/	.
.	16aJk 16d#/	.
4E\	8gL 8e 8c/	.
.	8f#XJ 8d#/	.
4GG\	8gL 8e/	.
.	8b/J	.
=108	=108	=108
!	!	!LO:DY:t=ff
4FF#X 4FFF#X/	8.ccL 8.e\	ff
.	16ccJk 16e\	.
2A 2F#X\	2e 2c\	.
=109	=109	=109
4GG 4GGG/	8.ccL 8.e\	.
.	16ccJk 16e\	.
2B-X 2G\	2e 2c\	.
=110	=110	=110
4GG#X 4GGG#X/	8.ccL 8.e\	.
.	16ccJk 16e\	.
4B 4G#X\	4e 4c\	.
4GG# 4GGG#/	8.ccL 8.e\	.
.	16ccJk 16e\	.
=111	=111	=111
4AA 4AAA/	8.fL 8.c\	.
.	16ccJk 16f\	.
4c 4A\	8ddL 8f\	.
.	8fJ 8c\	.
4AA-X 4AAA-X/	8f#XL 8c\	.
.	8ee-XJ 8f#\	.
!!LO:LB:g=original
=112	=112	=112
!	!LO:TX:b:i:t=con tutta forza	!
4GG 4GGG/	8.gL 8.c\	.
.	16eeJk 16g\	.
4c 4E\	8eeL 8g\	.
.	8gJ 8c\	.
4C\	8gL 8c\	.
.	8eeJ 8g\	.
=113	=113	=113
4GGG/	8.ffL 8.b 8.f\	.
.	16ff#XJk 16f#X\	.
4B 4F\	4aa 4a\	.
4GG\	4gg 4b 4g\	.
=114	=114	=114
4AA 4AAA/	8.eL 8.A/	.
.	16ccJk 16e/	.
4A 4C\	8ccL 8e/	.
.	8eJ 8A/	.
4AA\	8eL 8A/	.
.	8ccJ 8e/	.
=115	=115	=115
4EEE/	8.ddL 8.g#X 8.d\	.
.	16dd#XJk 16d#X\	.
4G#X 4D\	4ff 4f\	.
4EE/	4ee 4g# 4e\	.
=116	=116	=116
8.FFL 8.FFF/	8.eeL 8.a-X 8.e\	.
16AA-XJk 16AAA-X/	16ddJk 16a- 16d\	.
8DL 8DD\	4.dd 4.a- 4.d\	.
8EJ 8EE\	.	.
4F 4FF\	.	.
.	8a- 8A-X/	.
=117	=117	=117
4GG 4GGG/	8gL 8G/	.
.	8cc 8c/	.
4c 4E\	8ee 8e/	.
.	8gg 8g/	.
4C\	16cccJk 16cc/	.
.	16r	.
.	8bb 8b\	.
=118	=118	=118
4GGG/	4.aa 4.ff 4.dd 4.b 4.a\	.
4B 4F\	.	.
.	8dd 8d\	.
4GG\	8aaL 8ff 8dd 8b 8a\	.
.	8dd#XJ 8d#X\	.
=119	=119	=119
4CC/	8.aaL 8.ee 8.cc 8.a\	.
.	16eeJk 16e\	.
4c 4E\	4aa 4a\	.
4B 4D 4GG\	4gg 4dd 4g 4f\	.
!!LO:LB:g=original
=120	=120	=120
4E 4GG 4CC/	8.gL 8.c\	.
.	16eeJk 16g\	.
4c 4E\	8eeL 8g\	.
.	8gJ 8c\	.
4C\	8gL 8c\	.
.	8eeJ 8g\	.
=121	=121	=121
4GGG/	8.ffL 8.b 8.f\	.
.	16ff#XJk 16f#X\	.
4B 4F\	4aa 4a\	.
4GG\	4gg 4b 4g\	.
=122	=122	=122
4C 4EE 4AAA/	8.eL 8.A/	.
.	16ccJk 16e/	.
4A 4C\	8ccL 8e/	.
.	8e 8A/	.
4AA\	8e 8A/	.
.	8ccJ 8e/	.
=123	=123	=123
4EEE/	8.ddL 8.g#X 8.d\	.
.	16dd#XJk 16d#X\	.
4G#X 4D\	4ff 4f\	.
4EE/	4ee 4g# 4e\	.
=124	=124	=124
8.FFL 8.FFF/	8.eeL 8.a-X 8.e\	.
16AA-XJk 16AAA-X/	16ddJk 16a- 16d\	.
8DL 8DD/	4.dd 4.a- 4.d\	.
8EJ 8EE/	.	.
4F 4FF/	.	.
.	8a- 8A-X\	.
=125	=125	=125
4CC 4CCC/	8.gL 8.G/	.
.	16ccJk 16c/	.
4c 4E\	8eeL 8e\	.
.	8ggJ 8g\	.
4C\	4ccc 4cc\	.
=126	=126	=126
8.FFL 8.FFF/	8.eeL 8.a-X 8.e\	.
16AA-XJk 16AAA-X/	16ddJk 16a- 16d\	.
8DL 8DD\	4.dd 4.a- 4.d\	.
8EJ 8EE\	.	.
4F 4FF\	.	.
.	8a- 8A-X\	.
!!LO:LB:g=original
=127	=127	=127
4CC 4CCC/	8.gL 8.G/	.
.	16ccJk 16c/	.
4c 4E\	8eeL 8e\	.
.	8ggJ 8g\	.
4C\	4ccc 4cc\	.
=128	=128	=128
4FF 4FFF/	8.eeeL 8.aa-X 8.ee\	.
.	16dddJk 16aa- 16dd\	.
4a-X 4d 4c\	4.ddd 4.aa- 4.dd\	.
4d 4c 4F\	.	.
.	8aa- 8a-X\	.
=129	=129	=129
4FF#X 4FFF#X/	8.eeeL 8.aan 8.ee\	.
.	16dddJk 16aa 16dd\	.
4an 4d 4c\	4.ddd 4.aa 4.dd\	.
4d 4c 4F#X;\	.	.
.	8aan 8an;\	.
=130	=130	=130
!	!	!LO:DY:t=fff.
4GG 4GGG/	8.ffL 8.b 8.f\	fff
.	16ff#XJk 16f#X\	.
4B 4F 4GG\	4aa 4a\	.
4B 4F 4GG\	4gg 4dd 4g\	.
=131	=131	=131
4CC 4CCC/	4ccc 4gg 4cc 4e\	.
4c 4E 4GG\	4r	.
!LO:TX:a:t=[segno]:problem=znak segno na kresce taktowej	!LO:TX:a:t=[segno]:problem=znak segno na kresce taktowej	!
!	!LO:TX:b:i:t=Fine.	!
4r	4r	.
==	==	==
*-	*-	*-
!!!system-decoration: {(s1,s2)}
!!!RDF**kern: > = above
!!!RDF**kern: < = below
!!!**dynam: p = "p."
!!!**dynam: f = "f."
!!!**dynam: ff = "ff."
!!!ENC: Marta Lawrence
!!!END: 2021-05-19
!!!ENC: Krzysztof Stępień
!!!END: 2021-04-28
